X:1
T:Title
%%score ( 1 2 ) ( 3 4 )
L:1/8
Q:1/4=102
M:4/4
K:Eb
V:1 treble nm="Midi_74"
V:2 treble 
V:3 bass nm="Midi_74"
V:4 bass 
V:1
"^Hollingside  (77. 77. D)""^Jesu, Lover of my soul""^John Bacchus Dykes\n(1823-76)""^Charles Wesley\n(1707-88)" G2 B2 c2 B2 | %1
 B3 A G4 | e2 d2 c2 B2 | G2 E2 F4 || G2 B2 c2 B2 | B3 A G4 | G2 A2 G2 F2 | G3 F E4 || E2 A2 G2 A2 | %9
 _d2 c2 B4 | c2 c2 =d2 e2 | A2 G2 F4 || G2 B2 c2 B2 | B3 A G4 | G2 A2 G2 F2 | G3 F E4 |] %16
V:2
 E2 E2 C2 E2 | E2 F2 B,4 | E2 E2 E2 D2 | E2 E2 D4 || E2 E2 (EA) G2 | F2 E2 D4 | E2 E2 E2 E2 | %7
w: Je- su, Lo- ver|of my soul,|Let me to Thy|bo- som fly,|While the near\- * er|wa- ters roll,|While the tem- pest|
w: Oth- er ref- uge|have I none;|Hangs my help- less|soul on Thee;|Leave, ah! leave * me|not a- lone;|Still sup- port and|
w: ~~Thou, O Christ, art|all I want;|More than all in|Thee I find;|Raise the fal\- * len,|cheer the faint,|Heal the sick and|
w: ~~Plent- eous grace with|Thee is found,|Grace to co- ver|all my sin;|Let the heal\- * ing|streams a- bound;|Make and keep me|
 E2 D2 E4 || C2 E2 E2 E2 | F2 E2 G4 | E2 E2 A2 G2 | (EF) E2 D4 || E2 E2 (EA) G2 | F2 E2 D4 | %14
w: still is high;|||||Safe in- to * the|ha- ven guide;|
w: com- fort me.|||||Co- ver my * de-|fence- less head|
w: lead the blind.|||||False and full * of|sin I am,|
w: pure with- in.|||||Spring Thou up * with-|in my heart,|
 E2 E2 E2 E2 | E2 D2 E4 |] %16
w: O re- ceive my|soul at last!|
w: With the sha- dow|of Thy wing.|
w: Thou art full of|truth and grace.|
w: Rise to all e-|ter- ni- ty.|
V:3
 B,2 B,2 E2 B,2 | C2 D2 E4 | B,2 B,2 A,2 A,2 | B,2 =A,2 B,4 || B,2 G,2 (A,C) E2 | D2 C2 =B,4 | %6
 C2 A,2 B,2 C2 | B,2 A,2 G,4 || A,2 A,2 B,2 C2 | (A,B,) C2 E4 | C2 B,2 A,2 B,2 | C2 B,2 B,4 || %12
 B,2 G,2 (A,C) E2 | D2 C2 =B,4 | C2 A,2 B,2 C2 | B,2 A,2 G,4 |] %16
V:4
 E,2 G,2 A,2 G,2 | F,2 B,,2 E,4 | G,2 G,2 A,2 F,2 | E,2 C,2 B,,4 || E,2 E,2 E,2 E,2 | F,2 F,2 G,4 | %6
w: ||||||
w: ||||||
w: ||||||
w: ||||||
 C,2 C,2 B,,2 A,,2 | B,,2 B,,2 E,4 || A,,2 C,2 E,2 A,2 | (F,G,) A,2 E,4 | A,2 G,2 F,2 E,2 | %11
w: ||Hide me, O my|Sa\- * viour, hide,|Till the storm of|
w: ||All my trust in|Thee * is stayed;|All my help from|
w: ||Just and ho- ly|is * Thy Name,|I am all un-|
w: ||Thou of life the|foun\- * tain art,|Free- ly let me|
 (C,D,) E,2 B,,4 || E,2 E,2 E,2 E,2 | F,2 F,2 G,4 | C,2 C,2 B,,2 A,,2 | B,,2 B,,2 E,4 |] %16
w: life * is past;|||||
w: Thee * I bring;|||||
w: right\- * eous- ness;|||||
w: take * of Thee;|||||

